public/new/svg2.svg

<svg fill="none" height="28" viewBox="0 0 29 28" width="29" xmlns="http://www.w3.org/2000/svg"><path d="m20.6299 17-5 5m0-5 5 5m-11.00002-10.5h7.00002m1.5-3.5c0-.66304-.2634-1.29893-.7323-1.76777-.4688-.46884-1.1047-.73223-1.7677-.73223-.6631 0-1.2989.26339-1.7678.73223-.4688.46884-.7322 1.10473-.7322 1.76777v11c0 .663-.2634 1.2989-.7323 1.7678-.4688.4688-1.1047.7322-1.7677.7322-.66306 0-1.29894-.2634-1.76778-.7322-.46885-.4689-.73224-1.1048-.73224-1.7678" stroke="#77787e"/></svg>

<svg width="29" height="28" viewBox="0 0 29 28" fill="none" xmlns="http://www.w3.org/2000/svg">
<path d="M20.6299 17L15.6299 22M15.6299 17L20.6299 22M9.62988 11.5H16.6299M18.1299 8C18.1299 7.33696 17.8665 6.70107 17.3976 6.23223C16.9288 5.76339 16.2929 5.5 15.6299 5.5C14.9668 5.5 14.331 5.76339 13.8621 6.23223C13.3933 6.70107 13.1299 7.33696 13.1299 8V19C13.1299 19.663 12.8665 20.2989 12.3976 20.7678C11.9288 21.2366 11.2929 21.5 10.6299 21.5C9.96684 21.5 9.33096 21.2366 8.86212 20.7678C8.39327 20.2989 8.12988 19.663 8.12988 19" stroke="#77787E"/>
</svg>
